flaticon/weather/sunset.svg

<svg xmlns="http://www.w3.org/2000/svg" width="32" height="32" viewBox="0 0 24 24">
    <path d="M12 4.398438C12.222656 4.398438 12.398438 4.222656 12.398438 4L12.398438 1.601562C12.398438 1.378906 12.222656 1.199219 12 1.199219 11.777344 1.199219 11.601562 1.378906 11.601562 1.601562L11.601562 4C11.601562 4.222656 11.777344 4.398438 12 4.398438zM20.800781 13.199219C20.800781 13.421875 20.980469 13.601562 21.199219 13.601562L23.601562 13.601562C23.820312 13.601562 24 13.421875 24 13.199219 24 12.980469 23.820312 12.800781 23.601562 12.800781L21.199219 12.800781C20.980469 12.800781 20.800781 12.980469 20.800781 13.199219zM.398438 13.601562L2.800781 13.601562C3.019531 13.601562 3.199219 13.421875 3.199219 13.199219 3.199219 12.980469 3.019531 12.800781 2.800781 12.800781L.398438 12.800781C.179688 12.800781 0 12.980469 0 13.199219 0 13.421875.179688 13.601562.398438 13.601562zM18.503906 7.09375C18.609375 7.09375 18.710938 7.054688 18.789062 6.976562L21.082031 4.683594C21.238281 4.527344 21.238281 4.273438 21.082031 4.117188 20.925781 3.960938 20.671875 3.960938 20.515625 4.117188L18.222656 6.410156C18.066406 6.566406 18.066406 6.820312 18.222656 6.976562 18.300781 7.054688 18.402344 7.09375 18.503906 7.09375zM5.210938 6.976562C5.289062 7.054688 5.390625 7.09375 5.496094 7.09375 5.597656 7.09375 5.699219 7.054688 5.777344 6.976562 5.933594 6.820312 5.933594 6.566406 5.777344 6.410156L3.484375 4.117188C3.328125 3.960938 3.074219 3.960938 2.917969 4.117188 2.761719 4.273438 2.761719 4.527344 2.917969 4.683594zM20.101562 9.761719C20.164062 9.914062 20.3125 10.003906 20.46875 10.003906 20.519531 10.003906 20.574219 9.996094 20.625 9.972656L21.730469 9.503906C21.933594 9.417969 22.027344 9.183594 21.941406 8.980469 21.855469 8.777344 21.621094 8.683594 21.417969 8.769531L20.3125 9.238281C20.109375 9.324219 20.015625 9.558594 20.101562 9.761719zM2.207031 9.675781L3.320312 10.125C3.371094 10.144531 3.421875 10.152344 3.46875 10.152344 3.628906 10.152344 3.777344 10.058594 3.839844 9.902344 3.921875 9.699219 3.824219 9.464844 3.621094 9.382812L2.507812 8.933594C2.300781 8.851562 2.070312 8.949219 1.984375 9.15625 1.902344 9.359375 2.003906 9.59375 2.207031 9.675781zM8.039062 4.886719C8.101562 5.039062 8.25 5.132812 8.40625 5.132812 8.457031 5.132812 8.511719 5.121094 8.5625 5.097656 8.765625 5.011719 8.859375 4.777344 8.773438 4.574219L8.304688 3.46875C8.21875 3.265625 7.984375 3.171875 7.78125 3.257812 7.578125 3.34375 7.480469 3.578125 7.570312 3.78125zM15.296875 5.039062C15.34375 5.058594 15.394531 5.070312 15.445312 5.070312 15.605469 5.070312 15.753906 4.976562 15.816406 4.820312L16.265625 3.707031C16.347656 3.503906 16.25 3.269531 16.046875 3.1875 15.839844 3.101562 15.609375 3.203125 15.523438 3.40625L15.074219 4.519531C14.992188 4.726562 15.089844 4.957031 15.296875 5.039062zM15.296875 5.039062"/>
    <path d="M23.601562 16L19.90625 16C20.230469 15.097656 20.398438 14.160156 20.398438 13.199219 20.398438 8.566406 16.632812 4.800781 12 4.800781 7.367188 4.800781 3.601562 8.566406 3.601562 13.199219 3.601562 14.160156 3.769531 15.097656 4.09375 16L.398438 16C.179688 16 0 16.179688 0 16.398438 0 16.621094.179688 16.800781.398438 16.800781L23.601562 16.800781C23.820312 16.800781 24 16.621094 24 16.398438 24 16.179688 23.820312 16 23.601562 16zM7.15625 16C6.660156 15.144531 6.398438 14.183594 6.398438 13.199219 6.398438 10.113281 8.910156 7.601562 12 7.601562 15.089844 7.601562 17.601562 10.113281 17.601562 13.199219 17.601562 14.183594 17.339844 15.144531 16.84375 16zM17.746094 16C18.171875 15.128906 18.398438 14.171875 18.398438 13.199219 18.398438 9.671875 15.527344 6.800781 12 6.800781 8.472656 6.800781 5.601562 9.671875 5.601562 13.199219 5.601562 14.171875 5.828125 15.128906 6.253906 16L4.9375 16C4.582031 15.105469 4.398438 14.164062 4.398438 13.199219 4.398438 9.007812 7.808594 5.601562 12 5.601562 16.191406 5.601562 19.601562 9.007812 19.601562 13.199219 19.601562 14.164062 19.417969 15.105469 19.0625 16zM21.601562 18L2.398438 18C2.179688 18 2 18.179688 2 18.398438 2 18.621094 2.179688 18.800781 2.398438 18.800781L21.601562 18.800781C21.820312 18.800781 22 18.621094 22 18.398438 22 18.179688 21.820312 18 21.601562 18zM19.601562 20L4.398438 20C4.179688 20 4 20.179688 4 20.398438 4 20.621094 4.179688 20.800781 4.398438 20.800781L19.601562 20.800781C19.820312 20.800781 20 20.621094 20 20.398438 20 20.179688 19.820312 20 19.601562 20zM18 22L6 22C5.777344 22 5.601562 22.179688 5.601562 22.398438 5.601562 22.621094 5.777344 22.800781 6 22.800781L18 22.800781C18.222656 22.800781 18.398438 22.621094 18.398438 22.398438 18.398438 22.179688 18.222656 22 18 22zM18 22"/>
</svg>

<svg xmlns="http://www.w3.org/2000/svg" width="32" height="32" viewBox="0 0 24 24">
    <path d="M12 4.398A.395.395 0 0 0 12.398 4V1.602a.398.398 0 1 0-.796 0V4c0 .223.175.398.398.398zm0 0M20.8 13.2c0 .222.18.402.4.402h2.402a.401.401 0 0 0 0-.801h-2.403a.4.4 0 0 0-.398.398zm0 0M.398 13.602h2.403a.401.401 0 0 0 0-.801H.398a.4.4 0 0 0 0 .8zm0 0M18.504 7.094c.105 0 .207-.04.285-.117l2.293-2.293a.4.4 0 0 0-.566-.567L18.223 6.41a.4.4 0 0 0 .28.684zm0 0M5.21 6.977a.399.399 0 0 0 .567 0 .4.4 0 0 0 0-.567L3.484 4.117a.4.4 0 0 0-.566.567zm0 0M20.102 9.762c.062.152.21.242.367.242.05 0 .105-.008.156-.031l1.105-.47a.399.399 0 1 0-.312-.733l-1.105.468a.399.399 0 0 0-.211.524zm0 0M2.207 9.676l1.113.449c.051.02.102.027.149.027a.4.4 0 0 0 .152-.77l-1.113-.448a.403.403 0 0 0-.524.222.402.402 0 0 0 .223.52zm0 0M8.04 4.887c.062.152.21.246.366.246.051 0 .106-.012.156-.035a.399.399 0 0 0 .211-.524L8.305 3.47a.399.399 0 1 0-.735.312zm0 0M15.297 5.04a.397.397 0 0 0 .52-.219l.449-1.114a.4.4 0 0 0-.743-.3l-.449 1.113a.397.397 0 0 0 .223.52zm0 0"/>
    <path d="M23.602 16h-3.696c.324-.902.492-1.84.492-2.8 0-4.634-3.765-8.4-8.398-8.4-4.633 0-8.398 3.766-8.398 8.4 0 .96.168 1.898.492 2.8H.398a.4.4 0 0 0 0 .8h23.204a.401.401 0 0 0 0-.8zM7.156 16a5.571 5.571 0 0 1-.758-2.8A5.606 5.606 0 0 1 12 7.601a5.606 5.606 0 0 1 5.602 5.597c0 .985-.262 1.946-.758 2.801zm10.59 0a6.38 6.38 0 0 0 .652-2.8A6.407 6.407 0 0 0 12 6.8a6.407 6.407 0 0 0-6.398 6.4c0 .972.226 1.929.652 2.8H4.938a7.551 7.551 0 0 1-.54-2.8c0-4.192 3.41-7.598 7.602-7.598 4.191 0 7.602 3.406 7.602 7.597 0 .965-.184 1.906-.54 2.801zm0 0M21.602 18H2.398a.4.4 0 0 0 0 .8h19.204a.401.401 0 0 0 0-.8zm0 0M19.602 20H4.398a.4.4 0 0 0 0 .8h15.204a.401.401 0 0 0 0-.8zm0 0M18 22H6a.398.398 0 0 0-.398.398c0 .223.175.403.398.403h12c.223 0 .398-.18.398-.403A.398.398 0 0 0 18 22zm0 0"/>
</svg>
